X: 1217
T: The Youngest Daughter
M:C|
L:1/8
R:Reel
B:O'Neill's 1217
N:Collected by F. O'Neill
Z:Transcribed by Trish O'Neil
K:Em
E2BE dEBe|dBAF DEFD|E2BE dEBe|dBAF BEE2:|
Eeef gfed|BdAF DEFD|Eeef gfed|BdAF BEE2|
Eeef gfed|BdAF DEFA|afge fde^c dBAF BEE2||


